X: 18218
T: Humours Of Kilmanin, The
R: jig
M: 6/8
K: Edorian
Bee dBA|BdB AGF|EFG FDA|B3 dBA|
Bee fga|gfe dcB|ADd cAD|FED E3:|
|:ege B2e|geg bge|fdd ADd|cAD Bcd|
ege B2e|geg bge|fdd cAD|FED E3:|

